X:641
T:Leveneep Head #2
C:Joe Buchanan's Scottish Tome - Page 192.2
I:192 2
C:Frank Jamison
Z:Carl Allison
R:Reel
L:1/8
M:4/4
K:A
"A"A,2 CE "D"D2 FA | "A"E2 (Ad) "E7"cBAG | "D"FAdf "A"e2 e2 | "Bm7"dcBA "E7"GEDB, |
"A"A,2 CE "D"D2 FA | "A"E2 (Ad) "E7"cBAG | "D"FAdf "E7"eEGB | "A"c2 "D"A2 "A"A2 :|
cd | "A"eAce "A7"a2 (ga) | "D"fedf "A"eAcA | "D"FAdf "A"eAce | "Bm7"dcBA "E7"B2 (cd) |
"A"eAce "A7"a2 (ga) | "D"fedf "A"eAce | "D"FAdf "E7"eEGB | "A"c2 "D"A2 "A"A2 (cd) |
"A"eAce "A7"a2 (ga) | "D"fedf "A"eAcA | "D"FAdf "A"eAce | "Bm7"dcBA "E7"GEDC |
"A"A,2 CE "D"D2 FA | "A"E2 (Ad) "E7"cBAG | "D"FAdf "E7"eEGB | "A"c2 "D"A2 "A"A2 |]

